X: 1
T: Karavi Karavaki
O: Greek Kalamationos
R: kalamatian\'os
%S: s:5 b:36(4+4+4+4)
R: kalamationas
S: Fiddle Hell Online 2021-11-07 Beth Bahia Cohen workshop handout
Z: 2021 John Chambers <jc:trillian.mit.edu>
M: 7/8
L: 1/8
K: D
z3 zuD FA | "D"ddd d(=c/d/) cB | "Cm"=ccc c(B/c/) BA | "Bb"_BBB (c/B/)(B/A/) (G/A/)B/G/ | "D"A2A AG AB | "D"=c>_BA B2 AG |
_BA2- A2 FG | A>GA (F/G/F/D/) _ED | _BA2 AG A=B | "D"(=c>_B)A B2 AG | "Gm"_BG2- G2 FG | "Ab"_A2G F2 (_EF) |
"D"_DC2 z2 uD2 |: "D"A2A (_B/A/B/=c/) AG | "D"_BA2- A2 D2 | A2A (_B/A/B/=c/) AG | _BA2- A2 (A=B) | (=c>_B)A B2 AG |
"Gm"_BG2- G2 (FG) | "Ab"_A2G F(_E/F/) ED | "D"(=cd2) d(c/d/) (cB) | "Cm"=c2c c(_B/c/) (BA) | "Gm"_B2B B2 (AG) | "D"A3 A2 AB |
"D"(=c>_B)A B2 AG | _BA2- A2 (FG) | AGA F2 _ED | _BA2 AG A=B | (=c>_B)A B2 AG | "Gm"_BG2- G2 FG |
"Ab"_A2G F2 (_EF) | "D"_ED2- D2 AB | (=c>_B)A B2 AG | "Gm"BG2- G2 FG | "Ab"_A2G F2 (_EF) | "D"_ED2 z2 D2 :|
